X: 40
M: C|
L: 1/8
K: Bb
|: g>a |\
bfdf Bdfb | fdBd bfdB |\
ecge dBfd | e2 {d}c>B c2 (3edc |
(3gab Bd cAFe | d2 {c}B>A B2 H:|

